{
 "type": "map",
 "version": "1.10",
 "tiledversion": "1.11.2",
 "orientation": "orthogonal",
 "renderorder": "right-down",
 "infinite": false,
 "width": 20,
 "height": 9,
 "tilewidth": 16,
 "tileheight": 16,
 "nextlayerid": 6,
 "nextobjectid": 7,
 "properties": [
  {
   "name": "name",
   "type": "string",
   "value": "CB · Corredor"
  }
 ],
 "tilesets": [
  {
   "firstgid": 1,
   "name": "limezu-floors",
   "image": "../tilesets/limezu-floors.png",
   "imagewidth": 240,
   "imageheight": 640,
   "tilewidth": 16,
   "tileheight": 16,
   "columns": 15,
   "tilecount": 600,
   "margin": 0,
   "spacing": 0,
   "tiles": []
  },
  {
   "firstgid": 601,
   "name": "limezu-walls",
   "image": "../tilesets/limezu-walls.png",
   "imagewidth": 512,
   "imageheight": 640,
   "tilewidth": 16,
   "tileheight": 16,
   "columns": 32,
   "tilecount": 1280,
   "margin": 0,
   "spacing": 0,
   "tiles": [
    {
     "id": 448,
     "properties": [
      {
       "name": "collides",
       "type": "bool",
       "value": true
      }
     ]
    },
    {
     "id": 449,
     "properties": [
      {
       "name": "collides",
       "type": "bool",
       "value": true
      }
     ]
    },
    {
     "id": 450,
     "properties": [
      {
       "name": "collides",
       "type": "bool",
       "value": true
      }
     ]
    },
    {
     "id": 480,
     "properties": [
      {
       "name": "collides",
       "type": "bool",
       "value": true
      }
     ]
    },
    {
     "id": 481,
     "properties": [
      {
       "name": "collides",
       "type": "bool",
       "value": true
      }
     ]
    },
    {
     "id": 482,
     "properties": [
      {
       "name": "collides",
       "type": "bool",
       "value": true
      }
     ]
    }
   ]
  },
  {
   "firstgid": 1881,
   "name": "ufrn-lab",
   "image": "../tilesets/ufrn-lab.png",
   "imagewidth": 128,
   "imageheight": 64,
   "tilewidth": 16,
   "tileheight": 16,
   "columns": 8,
   "tilecount": 32,
   "margin": 0,
   "spacing": 0,
   "tiles": [
    {
     "id": 0,
     "properties": [
      {
       "name": "collides",
       "type": "bool",
       "value": true
      }
     ]
    },
    {
     "id": 1,
     "properties": [
      {
       "name": "collides",
       "type": "bool",
       "value": true
      }
     ]
    },
    {
     "id": 3,
     "properties": [
      {
       "name": "collides",
       "type": "bool",
       "value": true
      }
     ]
    },
    {
     "id": 4,
     "properties": [
      {
       "name": "collides",
       "type": "bool",
       "value": true
      }
     ]
    },
    {
     "id": 5,
     "properties": [
      {
       "name": "collides",
       "type": "bool",
       "value": true
      }
     ]
    },
    {
     "id": 6,
     "properties": [
      {
       "name": "collides",
       "type": "bool",
       "value": true
      }
     ]
    },
    {
     "id": 7,
     "properties": [
      {
       "name": "collides",
       "type": "bool",
       "value": true
      }
     ]
    },
    {
     "id": 8,
     "properties": [
      {
       "name": "collides",
       "type": "bool",
       "value": true
      }
     ]
    },
    {
     "id": 16,
     "properties": [
      {
       "name": "collides",
       "type": "bool",
       "value": true
      }
     ]
    },
    {
     "id": 24,
     "properties": [
      {
       "name": "collides",
       "type": "bool",
       "value": true
      }
     ]
    }
   ]
  }
 ],
 "layers": [
  {
   "type": "tilelayer",
   "id": 1,
   "name": "floor",
   "x": 0,
   "y": 0,
   "width": 20,
   "height": 9,
   "opacity": 1,
   "visible": true,
   "data": [
    0,
    0,
    0,
    0,
    0,
    0,
    0,
    0,
    0,
    463,
    464,
    0,
    0,
    0,
    0,
    0,
    0,
    0,
    0,
    0,
    0,
    0,
    0,
    0,
    0,
    0,
    0,
    0,
    0,
    478,
    479,
    0,
    0,
    0,
    0,
    0,
    0,
    0,
    0,
    0,
    0,
    0,
    0,
    0,
    0,
    0,
    0,
    0,
    0,
    463,
    464,
    0,
    0,
    0,
    0,
    0,
    0,
    0,
    0,
    0,
    0,
    479,
    480,
    478,
    479,
    480,
    478,
    479,
    480,
    478,
    479,
    480,
    478,
    479,
    480,
    478,
    479,
    480,
    478,
    0,
    0,
    464,
    465,
    463,
    464,
    465,
    463,
    464,
    465,
    463,
    464,
    465,
    463,
    464,
    465,
    463,
    464,
    465,
    463,
    464,
    0,
    479,
    480,
    478,
    479,
    480,
    478,
    479,
    480,
    478,
    479,
    480,
    478,
    479,
    480,
    478,
    479,
    480,
    478,
    479,
    0,
    464,
    465,
    463,
    464,
    465,
    463,
    464,
    465,
    463,
    464,
    465,
    463,
    464,
    465,
    463,
    464,
    465,
    463,
    0,
    0,
    479,
    480,
    478,
    479,
    480,
    478,
    479,
    480,
    478,
    479,
    480,
    478,
    479,
    480,
    478,
    479,
    480,
    478,
    0,
    0,
    0,
    0,
    0,
    0,
    0,
    0,
    0,
    0,
    0,
    0,
    0,
    0,
    0,
    0,
    0,
    0,
    0,
    0,
    0
   ]
  },
  {
   "type": "tilelayer",
   "id": 2,
   "name": "walls",
   "x": 0,
   "y": 0,
   "width": 20,
   "height": 9,
   "opacity": 1,
   "visible": true,
   "data": [
    1882,
    1882,
    1882,
    1882,
    1882,
    1882,
    1882,
    1882,
    1882,
    0,
    0,
    1882,
    1882,
    1882,
    1882,
    1882,
    1882,
    1882,
    1882,
    1882,
    1882,
    1049,
    1050,
    1050,
    1050,
    1050,
    1050,
    1050,
    1051,
    0,
    0,
    1049,
    1050,
    1050,
    1050,
    1050,
    1050,
    1050,
    1051,
    1882,
    1882,
    1081,
    1082,
    1082,
    1082,
    1082,
    1082,
    1082,
    1083,
    0,
    0,
    1081,
    1082,
    1082,
    1082,
    1082,
    1082,
    1082,
    1083,
    1882,
    1882,
    0,
    0,
    0,
    0,
    0,
    0,
    0,
    0,
    0,
    0,
    0,
    0,
    0,
    0,
    0,
    0,
    0,
    0,
    1882,
    1882,
    0,
    0,
    0,
    0,
    0,
    0,
    0,
    0,
    0,
    0,
    0,
    0,
    0,
    0,
    0,
    0,
    0,
    0,
    0,
    1882,
    0,
    0,
    0,
    0,
    0,
    0,
    0,
    0,
    0,
    0,
    0,
    0,
    0,
    0,
    0,
    0,
    0,
    0,
    0,
    1882,
    0,
    0,
    0,
    0,
    0,
    0,
    0,
    0,
    0,
    0,
    0,
    0,
    0,
    0,
    0,
    0,
    0,
    0,
    1882,
    1882,
    0,
    0,
    0,
    0,
    0,
    0,
    0,
    0,
    0,
    0,
    0,
    0,
    0,
    0,
    0,
    0,
    0,
    0,
    1882,
    1882,
    1882,
    1882,
    1882,
    1882,
    1882,
    1882,
    1882,
    1882,
    1882,
    1882,
    1882,
    1882,
    1882,
    1882,
    1882,
    1882,
    1882,
    1882,
    1882
   ]
  },
  {
   "type": "tilelayer",
   "id": 3,
   "name": "furniture",
   "x": 0,
   "y": 0,
   "width": 20,
   "height": 9,
   "opacity": 1,
   "visible": true,
   "data": [
    0,
    0,
    0,
    0,
    0,
    0,
    0,
    0,
    0,
    0,
    0,
    0,
    0,
    0,
    0,
    0,
    0,
    0,
    0,
    0,
    0,
    0,
    0,
    0,
    0,
    0,
    0,
    0,
    0,
    0,
    0,
    0,
    0,
    0,
    0,
    0,
    0,
    0,
    0,
    0,
    0,
    0,
    0,
    0,
    0,
    0,
    0,
    0,
    0,
    0,
    0,
    0,
    0,
    0,
    0,
    0,
    0,
    0,
    0,
    0,
    0,
    0,
    0,
    0,
    0,
    0,
    0,
    0,
    0,
    0,
    0,
    0,
    0,
    0,
    0,
    0,
    0,
    0,
    0,
    0,
    0,
    0,
    0,
    0,
    0,
    0,
    0,
    0,
    0,
    0,
    0,
    0,
    0,
    0,
    0,
    0,
    0,
    0,
    0,
    0,
    0,
    0,
    0,
    0,
    0,
    0,
    0,
    0,
    0,
    0,
    0,
    0,
    0,
    0,
    0,
    0,
    0,
    0,
    0,
    0,
    0,
    0,
    0,
    0,
    0,
    0,
    0,
    0,
    0,
    0,
    0,
    0,
    0,
    0,
    0,
    0,
    0,
    0,
    0,
    0,
    0,
    0,
    0,
    0,
    0,
    0,
    0,
    0,
    0,
    0,
    0,
    0,
    0,
    0,
    0,
    0,
    0,
    0,
    0,
    0,
    0,
    0,
    0,
    0,
    0,
    0,
    0,
    0,
    0,
    0,
    0,
    0,
    0,
    0,
    0,
    0,
    0,
    0,
    0,
    0
   ]
  },
  {
   "type": "tilelayer",
   "id": 4,
   "name": "items",
   "x": 0,
   "y": 0,
   "width": 20,
   "height": 9,
   "opacity": 1,
   "visible": true,
   "data": [
    0,
    0,
    0,
    0,
    0,
    0,
    0,
    0,
    0,
    0,
    0,
    0,
    0,
    0,
    0,
    0,
    0,
    0,
    0,
    0,
    0,
    0,
    0,
    0,
    1898,
    0,
    0,
    0,
    0,
    0,
    0,
    0,
    0,
    0,
    0,
    1898,
    0,
    0,
    0,
    0,
    0,
    0,
    0,
    0,
    1906,
    0,
    0,
    0,
    0,
    0,
    0,
    0,
    0,
    0,
    0,
    1906,
    0,
    0,
    0,
    0,
    0,
    0,
    0,
    0,
    0,
    0,
    0,
    0,
    0,
    0,
    0,
    0,
    0,
    0,
    0,
    0,
    0,
    0,
    0,
    0,
    0,
    0,
    0,
    0,
    0,
    0,
    0,
    0,
    0,
    0,
    0,
    0,
    0,
    0,
    0,
    0,
    0,
    0,
    0,
    0,
    0,
    0,
    0,
    0,
    0,
    0,
    0,
    0,
    0,
    0,
    0,
    0,
    0,
    0,
    0,
    0,
    0,
    0,
    0,
    0,
    0,
    0,
    0,
    0,
    0,
    0,
    0,
    0,
    0,
    0,
    0,
    0,
    0,
    0,
    0,
    0,
    0,
    0,
    0,
    0,
    0,
    0,
    0,
    0,
    0,
    0,
    0,
    0,
    0,
    0,
    0,
    0,
    0,
    0,
    0,
    0,
    0,
    0,
    0,
    0,
    0,
    0,
    0,
    0,
    0,
    0,
    0,
    0,
    0,
    0,
    0,
    0,
    0,
    0,
    0,
    0,
    0,
    0,
    0,
    0
   ]
  },
  {
   "type": "objectgroup",
   "id": 5,
   "name": "areas",
   "draworder": "topdown",
   "x": 0,
   "y": 0,
   "opacity": 1,
   "visible": true,
   "objects": [
    {
     "id": 1,
     "name": "default",
     "type": "entry",
     "x": 144,
     "y": 80,
     "width": 32,
     "height": 16,
     "rotation": 0,
     "visible": true,
     "properties": []
    },
    {
     "id": 2,
     "name": "porta-lab",
     "type": "entry",
     "x": 144,
     "y": 48,
     "width": 32,
     "height": 16,
     "rotation": 0,
     "visible": true,
     "properties": []
    },
    {
     "id": 3,
     "name": "voltar",
     "type": "door",
     "x": 144,
     "y": 0,
     "width": 32,
     "height": 16,
     "rotation": 0,
     "visible": true,
     "properties": [
      {
       "name": "map",
       "type": "string",
       "value": "cb-lab"
      },
      {
       "name": "entry",
       "type": "string",
       "value": "porta-corredor"
      }
     ]
    },
    {
     "id": 4,
     "name": "porta-campus",
     "type": "entry",
     "x": 272,
     "y": 64,
     "width": 16,
     "height": 16,
     "rotation": 0,
     "visible": true,
     "properties": []
    },
    {
     "id": 5,
     "name": "campus",
     "type": "door",
     "x": 304,
     "y": 64,
     "width": 16,
     "height": 32,
     "rotation": 0,
     "visible": true,
     "properties": [
      {
       "name": "map",
       "type": "string",
       "value": "campus-3-3"
      },
      {
       "name": "entry",
       "type": "string",
       "value": "cb"
      }
     ]
    },
    {
     "id": 6,
     "name": "zumbido",
     "type": "sound",
     "x": 0,
     "y": 0,
     "width": 320,
     "height": 144,
     "rotation": 0,
     "visible": true,
     "properties": [
      {
       "name": "src",
       "type": "string",
       "value": "audio/lab-hum.wav"
      },
      {
       "name": "volume",
       "type": "float",
       "value": 0.1
      }
     ]
    }
   ]
  }
 ]
}