{
 "type": "map",
 "version": "1.10",
 "tiledversion": "1.11.2",
 "orientation": "orthogonal",
 "renderorder": "right-down",
 "infinite": false,
 "width": 26,
 "height": 16,
 "tilewidth": 16,
 "tileheight": 16,
 "nextlayerid": 6,
 "nextobjectid": 9,
 "properties": [
  {
   "name": "name",
   "type": "string",
   "value": "CB · Laboratório de Biofísica"
  }
 ],
 "tilesets": [
  {
   "firstgid": 1,
   "name": "limezu-floors",
   "image": "../tilesets/limezu-floors.png",
   "imagewidth": 240,
   "imageheight": 640,
   "tilewidth": 16,
   "tileheight": 16,
   "columns": 15,
   "tilecount": 600,
   "margin": 0,
   "spacing": 0,
   "tiles": []
  },
  {
   "firstgid": 601,
   "name": "limezu-walls",
   "image": "../tilesets/limezu-walls.png",
   "imagewidth": 512,
   "imageheight": 640,
   "tilewidth": 16,
   "tileheight": 16,
   "columns": 32,
   "tilecount": 1280,
   "margin": 0,
   "spacing": 0,
   "tiles": [
    {
     "id": 448,
     "properties": [
      {
       "name": "collides",
       "type": "bool",
       "value": true
      }
     ]
    },
    {
     "id": 449,
     "properties": [
      {
       "name": "collides",
       "type": "bool",
       "value": true
      }
     ]
    },
    {
     "id": 450,
     "properties": [
      {
       "name": "collides",
       "type": "bool",
       "value": true
      }
     ]
    },
    {
     "id": 480,
     "properties": [
      {
       "name": "collides",
       "type": "bool",
       "value": true
      }
     ]
    },
    {
     "id": 481,
     "properties": [
      {
       "name": "collides",
       "type": "bool",
       "value": true
      }
     ]
    },
    {
     "id": 482,
     "properties": [
      {
       "name": "collides",
       "type": "bool",
       "value": true
      }
     ]
    }
   ]
  },
  {
   "firstgid": 1881,
   "name": "ufrn-lab",
   "image": "../tilesets/ufrn-lab.png",
   "imagewidth": 128,
   "imageheight": 64,
   "tilewidth": 16,
   "tileheight": 16,
   "columns": 8,
   "tilecount": 32,
   "margin": 0,
   "spacing": 0,
   "tiles": [
    {
     "id": 0,
     "properties": [
      {
       "name": "collides",
       "type": "bool",
       "value": true
      }
     ]
    },
    {
     "id": 1,
     "properties": [
      {
       "name": "collides",
       "type": "bool",
       "value": true
      }
     ]
    },
    {
     "id": 3,
     "properties": [
      {
       "name": "collides",
       "type": "bool",
       "value": true
      }
     ]
    },
    {
     "id": 4,
     "properties": [
      {
       "name": "collides",
       "type": "bool",
       "value": true
      }
     ]
    },
    {
     "id": 5,
     "properties": [
      {
       "name": "collides",
       "type": "bool",
       "value": true
      }
     ]
    },
    {
     "id": 6,
     "properties": [
      {
       "name": "collides",
       "type": "bool",
       "value": true
      }
     ]
    },
    {
     "id": 7,
     "properties": [
      {
       "name": "collides",
       "type": "bool",
       "value": true
      }
     ]
    },
    {
     "id": 8,
     "properties": [
      {
       "name": "collides",
       "type": "bool",
       "value": true
      }
     ]
    },
    {
     "id": 16,
     "properties": [
      {
       "name": "collides",
       "type": "bool",
       "value": true
      }
     ]
    },
    {
     "id": 24,
     "properties": [
      {
       "name": "collides",
       "type": "bool",
       "value": true
      }
     ]
    }
   ]
  }
 ],
 "layers": [
  {
   "type": "tilelayer",
   "id": 1,
   "name": "floor",
   "x": 0,
   "y": 0,
   "width": 26,
   "height": 16,
   "opacity": 1,
   "visible": true,
   "data": [
    0,
    0,
    0,
    0,
    0,
    0,
    0,
    0,
    0,
    0,
    0,
    0,
    0,
    0,
    0,
    0,
    0,
    0,
    0,
    0,
    0,
    0,
    0,
    0,
    0,
    0,
    0,
    0,
    0,
    0,
    0,
    0,
    0,
    0,
    0,
    0,
    0,
    0,
    0,
    0,
    0,
    0,
    0,
    0,
    0,
    0,
    0,
    0,
    0,
    0,
    0,
    0,
    0,
    0,
    0,
    0,
    0,
    0,
    0,
    0,
    0,
    0,
    0,
    0,
    0,
    0,
    0,
    0,
    0,
    0,
    0,
    0,
    0,
    0,
    0,
    0,
    0,
    0,
    0,
    479,
    480,
    478,
    479,
    480,
    478,
    479,
    480,
    478,
    479,
    480,
    478,
    479,
    480,
    478,
    479,
    480,
    478,
    479,
    480,
    478,
    479,
    480,
    478,
    0,
    0,
    464,
    465,
    463,
    464,
    465,
    463,
    464,
    465,
    463,
    464,
    465,
    463,
    464,
    465,
    463,
    464,
    465,
    463,
    464,
    465,
    463,
    464,
    465,
    463,
    0,
    0,
    479,
    480,
    478,
    479,
    480,
    478,
    479,
    480,
    478,
    479,
    480,
    478,
    479,
    480,
    478,
    479,
    480,
    478,
    479,
    480,
    478,
    479,
    480,
    478,
    0,
    0,
    464,
    465,
    463,
    464,
    465,
    463,
    464,
    465,
    463,
    464,
    465,
    463,
    464,
    465,
    463,
    464,
    465,
    463,
    464,
    465,
    463,
    464,
    465,
    463,
    0,
    0,
    479,
    480,
    478,
    479,
    480,
    478,
    479,
    480,
    478,
    479,
    480,
    478,
    479,
    480,
    478,
    479,
    480,
    478,
    479,
    480,
    478,
    479,
    480,
    478,
    0,
    0,
    464,
    465,
    463,
    464,
    465,
    463,
    464,
    465,
    463,
    464,
    465,
    463,
    464,
    465,
    463,
    464,
    465,
    463,
    464,
    465,
    463,
    464,
    465,
    463,
    0,
    0,
    479,
    480,
    478,
    479,
    480,
    478,
    479,
    480,
    478,
    479,
    480,
    478,
    479,
    480,
    478,
    479,
    480,
    478,
    479,
    480,
    478,
    479,
    480,
    478,
    0,
    0,
    464,
    465,
    463,
    464,
    465,
    463,
    464,
    465,
    463,
    464,
    465,
    463,
    464,
    465,
    463,
    464,
    465,
    463,
    464,
    465,
    463,
    464,
    465,
    463,
    0,
    0,
    479,
    480,
    478,
    479,
    480,
    478,
    479,
    480,
    478,
    479,
    480,
    478,
    479,
    480,
    478,
    479,
    480,
    478,
    479,
    480,
    478,
    479,
    480,
    478,
    0,
    0,
    464,
    465,
    463,
    464,
    465,
    463,
    464,
    465,
    463,
    464,
    465,
    463,
    464,
    465,
    463,
    464,
    465,
    463,
    464,
    465,
    463,
    464,
    465,
    463,
    0,
    0,
    479,
    480,
    478,
    479,
    480,
    478,
    479,
    480,
    478,
    479,
    480,
    478,
    479,
    480,
    478,
    479,
    480,
    478,
    479,
    480,
    478,
    479,
    480,
    478,
    0,
    0,
    464,
    465,
    463,
    464,
    465,
    463,
    464,
    465,
    463,
    464,
    465,
    463,
    464,
    465,
    463,
    464,
    465,
    463,
    464,
    465,
    463,
    464,
    465,
    463,
    0,
    0,
    0,
    0,
    0,
    0,
    0,
    0,
    0,
    0,
    0,
    0,
    0,
    478,
    479,
    0,
    0,
    0,
    0,
    0,
    0,
    0,
    0,
    0,
    0,
    0,
    0
   ]
  },
  {
   "type": "tilelayer",
   "id": 2,
   "name": "walls",
   "x": 0,
   "y": 0,
   "width": 26,
   "height": 16,
   "opacity": 1,
   "visible": true,
   "data": [
    1882,
    1882,
    1882,
    1882,
    1882,
    1882,
    1882,
    1882,
    1882,
    1882,
    1882,
    1882,
    1882,
    1882,
    1882,
    1882,
    1882,
    1882,
    1882,
    1882,
    1882,
    1882,
    1882,
    1882,
    1882,
    1882,
    1882,
    1049,
    1050,
    1050,
    1050,
    1050,
    1050,
    1050,
    1050,
    1050,
    1050,
    1050,
    1050,
    1050,
    1050,
    1050,
    1050,
    1050,
    1050,
    1050,
    1050,
    1050,
    1050,
    1050,
    1051,
    1882,
    1882,
    1081,
    1082,
    1082,
    1082,
    1082,
    1082,
    1082,
    1082,
    1082,
    1082,
    1082,
    1082,
    1082,
    1082,
    1082,
    1082,
    1082,
    1082,
    1082,
    1082,
    1082,
    1082,
    1082,
    1083,
    1882,
    1882,
    0,
    0,
    0,
    0,
    0,
    0,
    0,
    0,
    0,
    0,
    0,
    0,
    0,
    0,
    0,
    0,
    0,
    0,
    0,
    0,
    0,
    0,
    0,
    0,
    1882,
    1882,
    0,
    0,
    0,
    0,
    0,
    0,
    0,
    0,
    0,
    0,
    0,
    0,
    0,
    0,
    0,
    0,
    0,
    0,
    0,
    0,
    0,
    0,
    0,
    0,
    1882,
    1882,
    0,
    0,
    0,
    0,
    0,
    0,
    0,
    0,
    0,
    0,
    0,
    0,
    0,
    0,
    0,
    0,
    0,
    0,
    0,
    0,
    0,
    0,
    0,
    0,
    1882,
    1882,
    0,
    0,
    0,
    0,
    0,
    0,
    0,
    0,
    0,
    0,
    0,
    0,
    0,
    0,
    0,
    0,
    0,
    0,
    0,
    0,
    0,
    0,
    0,
    0,
    1882,
    1882,
    0,
    0,
    0,
    0,
    0,
    0,
    0,
    0,
    0,
    0,
    0,
    0,
    0,
    0,
    0,
    0,
    0,
    0,
    0,
    0,
    0,
    0,
    0,
    0,
    1882,
    1882,
    0,
    0,
    0,
    0,
    0,
    0,
    0,
    0,
    0,
    0,
    0,
    0,
    0,
    0,
    0,
    0,
    0,
    0,
    0,
    0,
    0,
    0,
    0,
    0,
    1882,
    1882,
    0,
    0,
    0,
    0,
    0,
    0,
    0,
    0,
    0,
    0,
    0,
    0,
    0,
    0,
    0,
    0,
    0,
    0,
    0,
    0,
    0,
    0,
    0,
    0,
    1882,
    1882,
    0,
    0,
    0,
    0,
    0,
    0,
    0,
    0,
    0,
    0,
    0,
    0,
    0,
    0,
    0,
    0,
    0,
    0,
    0,
    0,
    0,
    0,
    0,
    0,
    1882,
    1882,
    0,
    0,
    0,
    0,
    0,
    0,
    0,
    0,
    0,
    0,
    0,
    0,
    0,
    0,
    0,
    0,
    0,
    0,
    0,
    0,
    0,
    0,
    0,
    0,
    1882,
    1882,
    0,
    0,
    0,
    0,
    0,
    0,
    0,
    0,
    0,
    0,
    0,
    0,
    0,
    0,
    0,
    0,
    0,
    0,
    0,
    0,
    0,
    0,
    0,
    0,
    1882,
    1882,
    0,
    0,
    0,
    0,
    0,
    0,
    0,
    0,
    0,
    0,
    0,
    0,
    0,
    0,
    0,
    0,
    0,
    0,
    0,
    0,
    0,
    0,
    0,
    0,
    1882,
    1882,
    0,
    0,
    0,
    0,
    0,
    0,
    0,
    0,
    0,
    0,
    0,
    0,
    0,
    0,
    0,
    0,
    0,
    0,
    0,
    0,
    0,
    0,
    0,
    0,
    1882,
    1882,
    1882,
    1882,
    1882,
    1882,
    1882,
    1882,
    1882,
    1882,
    1882,
    1882,
    1882,
    0,
    0,
    1882,
    1882,
    1882,
    1882,
    1882,
    1882,
    1882,
    1882,
    1882,
    1882,
    1882,
    1882
   ]
  },
  {
   "type": "tilelayer",
   "id": 3,
   "name": "furniture",
   "x": 0,
   "y": 0,
   "width": 26,
   "height": 16,
   "opacity": 1,
   "visible": true,
   "data": [
    0,
    0,
    0,
    0,
    0,
    0,
    0,
    0,
    0,
    0,
    0,
    0,
    0,
    0,
    0,
    0,
    0,
    0,
    0,
    0,
    0,
    0,
    0,
    0,
    0,
    0,
    0,
    0,
    0,
    0,
    0,
    0,
    0,
    0,
    0,
    0,
    0,
    0,
    0,
    0,
    0,
    0,
    0,
    0,
    0,
    0,
    0,
    0,
    0,
    0,
    0,
    0,
    0,
    0,
    0,
    0,
    0,
    0,
    0,
    0,
    0,
    0,
    0,
    0,
    0,
    0,
    0,
    0,
    0,
    0,
    0,
    0,
    0,
    0,
    0,
    0,
    0,
    0,
    0,
    0,
    0,
    0,
    0,
    0,
    0,
    0,
    0,
    0,
    0,
    0,
    0,
    0,
    0,
    0,
    0,
    0,
    0,
    0,
    0,
    0,
    0,
    0,
    0,
    0,
    0,
    0,
    0,
    0,
    0,
    0,
    0,
    0,
    0,
    0,
    0,
    0,
    0,
    0,
    0,
    0,
    0,
    0,
    0,
    0,
    0,
    0,
    0,
    0,
    0,
    0,
    0,
    0,
    0,
    1884,
    1885,
    1885,
    1885,
    1885,
    1885,
    1885,
    1886,
    0,
    0,
    0,
    0,
    1884,
    1885,
    1885,
    1885,
    1885,
    1885,
    1885,
    1886,
    0,
    0,
    0,
    0,
    0,
    0,
    1887,
    1888,
    1888,
    1888,
    1888,
    1888,
    1888,
    1889,
    0,
    0,
    0,
    0,
    1887,
    1888,
    1888,
    1888,
    1888,
    1888,
    1888,
    1889,
    0,
    0,
    0,
    0,
    0,
    0,
    0,
    0,
    0,
    0,
    0,
    0,
    0,
    0,
    0,
    0,
    0,
    0,
    0,
    0,
    0,
    0,
    0,
    0,
    0,
    0,
    0,
    0,
    0,
    0,
    0,
    0,
    0,
    0,
    0,
    0,
    0,
    0,
    0,
    0,
    0,
    0,
    0,
    0,
    0,
    0,
    0,
    0,
    0,
    0,
    0,
    0,
    0,
    0,
    0,
    0,
    0,
    0,
    1884,
    1885,
    1885,
    1885,
    1885,
    1885,
    1885,
    1886,
    0,
    0,
    0,
    0,
    1884,
    1885,
    1885,
    1885,
    1885,
    1885,
    1885,
    1886,
    0,
    0,
    0,
    0,
    0,
    0,
    1887,
    1888,
    1888,
    1888,
    1888,
    1888,
    1888,
    1889,
    0,
    0,
    0,
    0,
    1887,
    1888,
    1888,
    1888,
    1888,
    1888,
    1888,
    1889,
    0,
    0,
    0,
    0,
    0,
    0,
    0,
    0,
    0,
    0,
    0,
    0,
    0,
    0,
    0,
    0,
    0,
    0,
    0,
    0,
    0,
    0,
    0,
    0,
    0,
    0,
    0,
    0,
    0,
    0,
    0,
    0,
    0,
    0,
    0,
    0,
    0,
    0,
    0,
    0,
    0,
    0,
    0,
    0,
    0,
    0,
    0,
    0,
    0,
    0,
    0,
    0,
    0,
    0,
    0,
    0,
    0,
    0,
    0,
    0,
    0,
    0,
    0,
    0,
    0,
    0,
    0,
    0,
    0,
    0,
    0,
    0,
    0,
    0,
    0,
    0,
    0,
    0,
    0,
    0,
    0,
    0,
    0,
    0,
    0,
    0,
    0,
    0,
    0,
    0,
    0,
    0,
    0,
    1883,
    1883,
    0,
    0,
    0,
    0,
    0,
    0,
    0,
    0,
    0,
    0,
    0,
    0,
    0,
    0,
    0,
    0,
    0,
    0,
    0,
    0,
    0,
    0,
    0,
    0,
    0,
    0,
    0,
    0,
    0,
    0,
    0,
    0,
    0,
    0,
    0,
    0,
    0,
    0
   ]
  },
  {
   "type": "tilelayer",
   "id": 4,
   "name": "items",
   "x": 0,
   "y": 0,
   "width": 26,
   "height": 16,
   "opacity": 1,
   "visible": true,
   "data": [
    0,
    0,
    0,
    0,
    0,
    0,
    0,
    0,
    0,
    0,
    0,
    0,
    0,
    0,
    0,
    0,
    0,
    0,
    0,
    0,
    0,
    0,
    0,
    0,
    0,
    0,
    0,
    0,
    0,
    0,
    1898,
    0,
    0,
    0,
    1898,
    0,
    0,
    0,
    0,
    0,
    0,
    0,
    0,
    1898,
    0,
    0,
    0,
    1898,
    0,
    0,
    0,
    0,
    0,
    1897,
    1897,
    0,
    1906,
    0,
    0,
    0,
    1906,
    0,
    0,
    0,
    0,
    0,
    0,
    0,
    0,
    1906,
    0,
    0,
    0,
    1906,
    0,
    1897,
    1897,
    0,
    0,
    1905,
    1905,
    0,
    0,
    0,
    0,
    0,
    0,
    0,
    0,
    0,
    0,
    0,
    0,
    0,
    0,
    0,
    0,
    0,
    0,
    0,
    0,
    1905,
    1905,
    0,
    0,
    0,
    0,
    0,
    0,
    0,
    0,
    0,
    0,
    0,
    0,
    0,
    0,
    0,
    0,
    0,
    0,
    0,
    0,
    0,
    0,
    0,
    0,
    0,
    0,
    0,
    0,
    0,
    0,
    1890,
    1891,
    1895,
    1896,
    0,
    1892,
    1890,
    1893,
    0,
    0,
    0,
    0,
    1890,
    1893,
    1896,
    1896,
    0,
    1894,
    1892,
    1891,
    0,
    0,
    0,
    0,
    0,
    0,
    0,
    0,
    0,
    0,
    0,
    0,
    0,
    0,
    0,
    0,
    0,
    0,
    0,
    0,
    0,
    0,
    0,
    0,
    0,
    0,
    0,
    0,
    0,
    0,
    0,
    0,
    0,
    0,
    0,
    0,
    0,
    0,
    0,
    0,
    0,
    0,
    0,
    0,
    0,
    0,
    0,
    0,
    0,
    0,
    0,
    0,
    0,
    0,
    0,
    0,
    0,
    0,
    0,
    0,
    0,
    0,
    0,
    0,
    0,
    0,
    0,
    0,
    0,
    0,
    0,
    0,
    0,
    0,
    0,
    0,
    0,
    0,
    0,
    0,
    0,
    0,
    0,
    0,
    1894,
    1890,
    0,
    1896,
    1892,
    1891,
    1895,
    1890,
    0,
    0,
    0,
    0,
    1890,
    0,
    1896,
    1892,
    1893,
    1894,
    1896,
    1891,
    0,
    0,
    0,
    0,
    0,
    0,
    0,
    0,
    0,
    0,
    0,
    0,
    0,
    0,
    0,
    0,
    0,
    0,
    0,
    0,
    0,
    0,
    0,
    0,
    0,
    0,
    0,
    0,
    0,
    0,
    0,
    0,
    0,
    0,
    0,
    0,
    0,
    0,
    0,
    0,
    0,
    0,
    0,
    0,
    0,
    0,
    0,
    0,
    0,
    0,
    0,
    0,
    0,
    0,
    0,
    0,
    0,
    0,
    0,
    0,
    0,
    0,
    0,
    0,
    0,
    0,
    0,
    0,
    0,
    0,
    0,
    0,
    0,
    0,
    0,
    0,
    0,
    0,
    0,
    0,
    0,
    0,
    0,
    0,
    0,
    0,
    0,
    0,
    0,
    0,
    0,
    0,
    0,
    0,
    0,
    0,
    0,
    0,
    0,
    0,
    0,
    0,
    0,
    0,
    0,
    0,
    0,
    0,
    0,
    0,
    0,
    0,
    0,
    0,
    0,
    0,
    0,
    0,
    0,
    0,
    0,
    0,
    0,
    0,
    0,
    0,
    0,
    0,
    0,
    0,
    0,
    0,
    0,
    0,
    0,
    0,
    0,
    0,
    0,
    0,
    0,
    0,
    0,
    0,
    0,
    0,
    0,
    0,
    0,
    0,
    0,
    0,
    0,
    0,
    0,
    0,
    0,
    0,
    0
   ]
  },
  {
   "type": "objectgroup",
   "id": 5,
   "name": "areas",
   "draworder": "topdown",
   "x": 0,
   "y": 0,
   "opacity": 1,
   "visible": true,
   "objects": [
    {
     "id": 1,
     "name": "default",
     "type": "entry",
     "x": 192,
     "y": 192,
     "width": 32,
     "height": 16,
     "rotation": 0,
     "visible": true,
     "properties": []
    },
    {
     "id": 2,
     "name": "porta-corredor",
     "type": "entry",
     "x": 192,
     "y": 208,
     "width": 32,
     "height": 16,
     "rotation": 0,
     "visible": true,
     "properties": []
    },
    {
     "id": 3,
     "name": "porta",
     "type": "door",
     "x": 192,
     "y": 240,
     "width": 32,
     "height": 16,
     "rotation": 0,
     "visible": true,
     "properties": [
      {
       "name": "map",
       "type": "string",
       "value": "cb-corredor"
      },
      {
       "name": "entry",
       "type": "string",
       "value": "porta-lab"
      }
     ]
    },
    {
     "id": 4,
     "name": "professor",
     "type": "npc",
     "x": 192,
     "y": 48,
     "width": 16,
     "height": 16,
     "rotation": 0,
     "visible": true,
     "properties": [
      {
       "name": "name",
       "type": "string",
       "value": "Prof. Bezerra"
      },
      {
       "name": "sprite",
       "type": "string",
       "value": "old-man"
      },
      {
       "name": "text",
       "type": "string",
       "value": "Seja bem-vindo ao CB/UFRN! Este é o laboratório de Biofísica Prática.\n---\nChegue perto das bancadas e aperte Z (ou E) para conhecer os equipamentos."
      }
     ]
    },
    {
     "id": 5,
     "name": "monitora",
     "type": "npc",
     "x": 208,
     "y": 112,
     "width": 16,
     "height": 16,
     "rotation": 0,
     "visible": true,
     "properties": [
      {
       "name": "name",
       "type": "string",
       "value": "Monitora"
      },
      {
       "name": "sprite",
       "type": "string",
       "value": "blonde-woman"
      },
      {
       "name": "text",
       "type": "string",
       "value": "Oi! Sou monitora de Biofísica.\n---\nOs minigames de microscopia chegam em breve!"
      }
     ]
    },
    {
     "id": 6,
     "name": "microscopio",
     "type": "sign",
     "x": 48,
     "y": 80,
     "width": 16,
     "height": 32,
     "rotation": 0,
     "visible": true,
     "properties": [
      {
       "name": "text",
       "type": "string",
       "value": "Microscópio de Biofísica.\n---\nEm breve: minigame de microscopia!"
      }
     ]
    },
    {
     "id": 7,
     "name": "computador",
     "type": "website",
     "x": 272,
     "y": 80,
     "width": 16,
     "height": 32,
     "rotation": 0,
     "visible": true,
     "properties": [
      {
       "name": "url",
       "type": "string",
       "value": "https://www.ufrn.br/"
      },
      {
       "name": "trigger",
       "type": "string",
       "value": "key"
      }
     ]
    },
    {
     "id": 8,
     "name": "zumbido",
     "type": "sound",
     "x": 0,
     "y": 0,
     "width": 416,
     "height": 256,
     "rotation": 0,
     "visible": true,
     "properties": [
      {
       "name": "src",
       "type": "string",
       "value": "audio/lab-hum.wav"
      },
      {
       "name": "volume",
       "type": "float",
       "value": 0.25
      }
     ]
    }
   ]
  }
 ]
}